public/images/logo/logo-dark.svg

<svg width="176" height="32" viewBox="0 0 176 32" fill="none" xmlns="http://www.w3.org/2000/svg">
<path d="M44 9.17592H50.2773V27.1572H54.032V9.17592H60.3093V5.71459H44V9.17592Z" fill="#1C2434"/>
<path d="M64.4999 27.5386C66.7585 27.5386 68.7239 26.5119 69.3399 25.0159L69.6039 27.1572H72.7425V18.3572C72.7425 14.3386 70.3372 12.2266 66.4359 12.2266C62.5052 12.2266 59.9239 14.2799 59.9239 17.4186H62.9745C62.9745 15.8933 64.1479 15.0133 66.2599 15.0133C68.0785 15.0133 69.2519 15.8053 69.2519 17.7706V18.0932L64.9105 18.4159C61.4785 18.6799 59.5425 20.3519 59.5425 23.0213C59.5425 25.7492 61.4199 27.5386 64.4999 27.5386ZM65.6732 24.8399C64.0599 24.8399 63.1799 24.1946 63.1799 22.8746C63.1799 21.7012 64.0305 20.9679 66.2599 20.7626L69.2812 20.5279V21.2906C69.2812 23.5199 67.8732 24.8399 65.6732 24.8399Z" fill="#1C2434"/>
<path d="M78.0475 9.76258C79.2209 9.76258 80.1889 8.79458 80.1889 7.59192C80.1889 6.38925 79.2209 5.45059 78.0475 5.45059C76.8155 5.45059 75.8475 6.38925 75.8475 7.59192C75.8475 8.79458 76.8155 9.76258 78.0475 9.76258ZM76.2582 27.1572H79.8369V12.6666H76.2582V27.1572Z" fill="#1C2434"/>
<path d="M87.1422 27.1572V5.33325H83.5929V27.1572H87.1422Z" fill="#1C2434"/>
<path d="M93.2722 27.1572L95.0029 22.1999H103.011L104.742 27.1572H108.702L100.958 5.71459H97.1149L89.3709 27.1572H93.2722ZM98.5522 12.1093C98.7576 11.5226 98.9335 10.8773 99.0215 10.4666C99.0802 10.9066 99.2855 11.5519 99.4615 12.1093L101.926 19.0319H96.1175L98.5522 12.1093Z" fill="#1C2434"/>
<path d="M116.158 27.5386C118.358 27.5386 120.236 26.5706 121.116 24.8986L121.35 27.1572H124.636V5.33325H121.086V14.5146C120.177 13.0773 118.388 12.2266 116.364 12.2266C111.993 12.2266 109.353 15.4533 109.353 19.9706C109.353 24.4586 111.964 27.5386 116.158 27.5386ZM116.95 24.2532C114.457 24.2532 112.932 22.4346 112.932 19.8533C112.932 17.2719 114.457 15.4239 116.95 15.4239C119.444 15.4239 121.057 17.2426 121.057 19.8533C121.057 22.4639 119.444 24.2532 116.95 24.2532Z" fill="#1C2434"/>
<path d="M131.944 27.1572V18.9439C131.944 16.5973 133.322 15.4826 135.024 15.4826C136.725 15.4826 137.81 16.5679 137.81 18.5919V27.1572H141.389V18.9439C141.389 16.5679 142.709 15.4533 144.44 15.4533C146.141 15.4533 147.256 16.5386 147.256 18.6213V27.1572H150.805V17.6826C150.805 14.3386 148.869 12.2266 145.349 12.2266C143.149 12.2266 141.448 13.3119 140.714 14.9839C139.952 13.3119 138.426 12.2266 136.226 12.2266C134.144 12.2266 132.677 13.1653 131.944 14.3679L131.65 12.6666H128.365V27.1572H131.944Z" fill="#1C2434"/>
<path d="M156.107 9.76258C157.281 9.76258 158.249 8.79458 158.249 7.59192C158.249 6.38925 157.281 5.45059 156.107 5.45059C154.875 5.45059 153.907 6.38925 153.907 7.59192C153.907 8.79458 154.875 9.76258 156.107 9.76258ZM154.318 27.1572H157.897V12.6666H154.318V27.1572Z" fill="#1C2434"/>
<path d="M165.173 27.1572V19.3546C165.173 17.0079 166.522 15.4826 168.722 15.4826C170.57 15.4826 171.773 16.6559 171.773 19.0906V27.1572H175.351V18.2399C175.351 14.4853 173.474 12.2266 169.837 12.2266C167.871 12.2266 166.111 13.0773 165.202 14.5439L164.909 12.6666H161.594V27.1572H165.173Z" fill="#1C2434"/>
<path d="M0 8.42105C0 3.77023 3.77023 0 8.42105 0H23.5789C28.2298 0 32 3.77023 32 8.42105V23.5789C32 28.2298 28.2298 32 23.5789 32H8.42105C3.77023 32 0 28.2298 0 23.5789V8.42105Z" fill="#3C50E0"/>
<g filter="url(#filter0_d_521_14075)">
<path d="M8.42139 8.42127C8.42139 7.49111 9.17543 6.73706 10.1056 6.73706V6.73706C11.0358 6.73706 11.7898 7.49111 11.7898 8.42127V23.5792C11.7898 24.5093 11.0358 25.2634 10.1056 25.2634V25.2634C9.17543 25.2634 8.42139 24.5093 8.42139 23.5792V8.42127Z" fill="white"/>
</g>
<g opacity="0.9" filter="url(#filter1_d_521_14075)">
<path d="M14.7368 15.1576C14.7368 14.2274 15.4909 13.4734 16.421 13.4734V13.4734C17.3512 13.4734 18.1052 14.2274 18.1052 15.1576V23.5786C18.1052 24.5088 17.3512 25.2629 16.421 25.2629V25.2629C15.4909 25.2629 14.7368 24.5088 14.7368 23.5786V15.1576Z" fill="white"/>
</g>
<g opacity="0.7" filter="url(#filter2_d_521_14075)">
<path d="M21.0522 10.9469C21.0522 10.0167 21.8063 9.2627 22.7365 9.2627V9.2627C23.6666 9.2627 24.4207 10.0167 24.4207 10.9469V23.5785C24.4207 24.5086 23.6666 25.2627 22.7365 25.2627V25.2627C21.8063 25.2627 21.0522 24.5086 21.0522 23.5785V10.9469Z" fill="white"/>
</g>
<defs>
<filter id="filter0_d_521_14075" x="7.42139" y="6.23706" width="5.36865" height="20.5264" filterUnits="userSpaceOnUse" color-interpolation-filters="sRGB">
<feFlood flood-opacity="0" result="BackgroundImageFix"/>
<feColorMatrix in="SourceAlpha" type="matrix" values="0 0 0 0 0 0 0 0 0 0 0 0 0 0 0 0 0 0 127 0" result="hardAlpha"/>
<feOffset dy="0.5"/>
<feGaussianBlur stdDeviation="0.5"/>
<feComposite in2="hardAlpha" operator="out"/>
<feColorMatrix type="matrix" values="0 0 0 0 0 0 0 0 0 0 0 0 0 0 0 0 0 0 0.12 0"/>
<feBlend mode="normal" in2="BackgroundImageFix" result="effect1_dropShadow_521_14075"/>
<feBlend mode="normal" in="SourceGraphic" in2="effect1_dropShadow_521_14075" result="shape"/>
</filter>
<filter id="filter1_d_521_14075" x="13.7368" y="12.9734" width="5.36865" height="13.7896" filterUnits="userSpaceOnUse" color-interpolation-filters="sRGB">
<feFlood flood-opacity="0" result="BackgroundImageFix"/>
<feColorMatrix in="SourceAlpha" type="matrix" values="0 0 0 0 0 0 0 0 0 0 0 0 0 0 0 0 0 0 127 0" result="hardAlpha"/>
<feOffset dy="0.5"/>
<feGaussianBlur stdDeviation="0.5"/>
<feComposite in2="hardAlpha" operator="out"/>
<feColorMatrix type="matrix" values="0 0 0 0 0 0 0 0 0 0 0 0 0 0 0 0 0 0 0.12 0"/>
<feBlend mode="normal" in2="BackgroundImageFix" result="effect1_dropShadow_521_14075"/>
<feBlend mode="normal" in="SourceGraphic" in2="effect1_dropShadow_521_14075" result="shape"/>
</filter>
<filter id="filter2_d_521_14075" x="20.0522" y="8.7627" width="5.36865" height="18" filterUnits="userSpaceOnUse" color-interpolation-filters="sRGB">
<feFlood flood-opacity="0" result="BackgroundImageFix"/>
<feColorMatrix in="SourceAlpha" type="matrix" values="0 0 0 0 0 0 0 0 0 0 0 0 0 0 0 0 0 0 127 0" result="hardAlpha"/>
<feOffset dy="0.5"/>
<feGaussianBlur stdDeviation="0.5"/>
<feComposite in2="hardAlpha" operator="out"/>
<feColorMatrix type="matrix" values="0 0 0 0 0 0 0 0 0 0 0 0 0 0 0 0 0 0 0.12 0"/>
<feBlend mode="normal" in2="BackgroundImageFix" result="effect1_dropShadow_521_14075"/>
<feBlend mode="normal" in="SourceGraphic" in2="effect1_dropShadow_521_14075" result="shape"/>
</filter>
</defs>
</svg>

<svg version="1.2" xmlns="http://www.w3.org/2000/svg" viewBox="0 0 176 32" width="176" height="32">
	<title>logo-dark-svg</title>
	<style>
		tspan { white-space:pre } 
		.t0 { font-size: 24px;fill: #000000;font-weight: 400;font-family: "DejaVuSans", "DejaVu Sans" } 
		.s1 { fill: #ffffff } 
	</style>
	<text id="Admin" style="transform: matrix(-0.049,-0.999,.999,-0.049,60.256,116.422)" >
		<tspan x="0" y="18.2" class="t0">A</tspan><tspan  y="18.2" class="t0">d</tspan><tspan  y="18.2" class="t0">m</tspan><tspan  y="18.2" class="t0">i</tspan><tspan  y="18.2" class="t0">n</tspan><tspan  y="18.2" class="t0">
</tspan>
	</text>
	<text id="Shakib Admin" style="transform: matrix(1,.001,-0.001,1,2.017,4.463)" >
		<tspan x="0" y="18.2" class="t0">S</tspan><tspan  y="18.2" class="t0">h</tspan><tspan  y="18.2" class="t0">a</tspan><tspan  y="18.2" class="t0">k</tspan><tspan  y="18.2" class="t0">i</tspan><tspan  y="18.2" class="t0">b</tspan><tspan  y="18.2" class="t0"> </tspan><tspan  y="18.2" class="t0">A</tspan><tspan  y="18.2" class="t0">d</tspan><tspan  y="18.2" class="t0">m</tspan><tspan  y="18.2" class="t0">i</tspan><tspan  y="18.2" class="t0">n
</tspan>
	</text>
	<g id="Layer">
		<path id="Layer" class="s1" d="m8.4 8.4c0-0.9 0.8-1.7 1.7-1.7 0.9 0 1.7 0.8 1.7 1.7v15.2c0 0.9-0.8 1.7-1.7 1.7-0.9 0-1.7-0.8-1.7-1.7z"/>
	</g>
	<g id="Layer" style="opacity: .9">
	</g>
	<g id="Layer" style="opacity: .7">
		<path id="Layer" class="s1" d="m21.1 10.9c0-0.9 0.7-1.6 1.6-1.6 1 0 1.7 0.7 1.7 1.6v12.7c0 0.9-0.7 1.7-1.7 1.7-0.9 0-1.6-0.8-1.6-1.7z"/>
	</g>
</svg>
